!!!COM: Louise Reichardt
!!!CNT: Deutsch
!!!TXO: Deutsch
!!!OTL: Bergmannslied
!!!LYR: Novalis (Georg Friedrich Freiherr von Hardenberg)
!!!OPR: 
!!!OPS: No opus information available
!!!ONM: No. 19
!!!ENC: Ben Fuhrman
!!!YOR: Louise Reichardt: Songs
!!!YOR: New York, Da Capo Press, 1981
!!!ODT: 1800 - 1826
!!NB: Only vocal melody encoded.
!!NB: First instance of melodic material only encoded.
!!created: 2/18/10 2:14PM
!!proofed and posted: 2/18/10 2:14PM
**kern	**silbe
*clef G2	*
*k[b-e-a-d-]	*
*M4/4	*
*MM[Geheimnissvoll]	*
{4c	{Ich
=1	=1
4f	ken-
4g	-ne
4a-	wo
4en	ein
=2	=2
4f	fes-
4c	-tes
4.d-	Schloss
8c	ein
=3	=3
4.c	stil-
8B-	-ler
8A-	Ko-
8G	-nig
8A-	wohnt
8F	da-
=4	=4
2c	-rin
4c}	-nen}
{4c	{mit
=5	=5
4f	ein-
4g	-nem
4a-	wun-
4f	-der-
=6	=6
4b-	-lich-
4a-	-en
4g	Tross
4e-	doch
=7	=7
4.c	steigt
8B-	er
8A-	nic
8G	von
8A-	sei-
8F	-nen
=8	=8
2B-	Zin-
4e-}	-nen.}
{4g	{Ver-
=9	=9
4a-	-bor-
4g	-gen
4f	ift
4e-	sein
=10	=10
4dn	Lust-
4e-	-ge-
4f	-mach
4g-	und
=11	=11
4b-	un-
4a-	-sicht-
4g	-ba-
4f	-re
=12	=12
4e-	Wa2ch-
4f	-ter
4g	laus-
8c}	-chen}
{8c	{nur
=13	=13
4f	wohl-
4a-	-be-
4cc	-kann-
4dd-	-te
=14	=14
4en	Quel-
4cc	-len
4a-	raus-
8en	-chen
8en	zu
=15	=15
4f	ihm
4d-	her-
4c	-ab
4f	vom
=16	=16
4f	bun-
4en	-ten
4f}	Dach.}
4r	.
==	==
*-	*-
